X: 30054
T: CASTILIAN MAID
C:
%R: waltz
B: Elias Howe "The Musician's Companion" Part 3 1844 p.5 #4
S: http://imslp.org/wiki/The_Musician's_Companion_(Howe,_Elias)
S: https://archive.org/stream/firstthirdpartof03howe/#page/66/mode/1up
Z: 2016 John Chambers <jc:trillian.mit.edu>
M: 3/8
L: 1/8
K: G
% - - - - - - - - - - - - - - - - - - - - - - - - -
B/c/ |\
edc | dcA | cBG | G2 B/c/ |\
edB | dcF | G2 F/G/ | BAF |\
AGE | GFD | D2F/F/ | BAF |\
AGE | D2 |]
% - - - - - - - - - - - - - - - - - - - - - - - - -
